X:1
T: Abbots Bromley horn dance tune
M:6/8     %Meter
L:1/8     %
K:Em
e |:"Em"B2 e G2 e |B2 e E2 G |"D"FGA "G"GAB ||1"D"AGF "Em"G2 e :|2"D"AGF "Em"E2 e ||
|:"Am"c2 e "C"cde |"Am"A2 c ABc |"D"FGA "Em"GFE |"D"DEF "Em"B,2 g |
"C"e2 g efg |"Am"c2 e cde |"G"dcB "D"AGF |"Em"E3 E2 A :|
|:"Em"BcB "Am"c3 |"Em"BcB "C"e3 |"G"BcB "D"AGF ||1"G"G3 G2 A :|2"Em"E3 E2 z |]
     %End of file
